Numix/22/places/custom-folder-ubuntu.svg

<?xml version="1.0" encoding="UTF-8" standalone="no"?>
<!-- Created with Inkscape (http://www.inkscape.org/) -->

<svg
   xmlns:dc="http://purl.org/dc/elements/1.1/"
   xmlns:cc="http://creativecommons.org/ns#"
   xmlns:rdf="http://www.w3.org/1999/02/22-rdf-syntax-ns#"
   xmlns:svg="http://www.w3.org/2000/svg"
   xmlns="http://www.w3.org/2000/svg"
   xmlns:xlink="http://www.w3.org/1999/xlink"
   xmlns:sodipodi="http://sodipodi.sourceforge.net/DTD/sodipodi-0.dtd"
   xmlns:inkscape="http://www.inkscape.org/namespaces/inkscape"
   width="22"
   height="22"
   id="svg2"
   version="1.1"
   inkscape:version="0.48.5 r10040"
   sodipodi:docname="folder-ubuntu.svg"
   inkscape:export-filename="/media/Data/Main/Visuals/Icons/Numix/Desktop/repos/numix-wiki/Gjorgi/Numix-folders/48/New/folder-144.png"
   inkscape:export-xdpi="270"
   inkscape:export-ydpi="270">
  <defs
     id="defs4">
    <linearGradient
       inkscape:collect="always"
       id="linearGradient3760">
      <stop
         style="stop-color:#000000;stop-opacity:1;"
         offset="0"
         id="stop3762" />
      <stop
         style="stop-color:#000000;stop-opacity:0;"
         offset="1"
         id="stop3764" />
    </linearGradient>
    <radialGradient
       inkscape:collect="always"
       xlink:href="#linearGradient3760"
       id="radialGradient3766"
       cx="11"
       cy="19"
       fx="11"
       fy="19"
       r="11"
       gradientTransform="matrix(1,0,0,0.09090909,0,17.272727)"
       gradientUnits="userSpaceOnUse" />
  </defs>
  <sodipodi:namedview
     id="base"
     pagecolor="#ffffff"
     bordercolor="#666666"
     borderopacity="1.0"
     inkscape:pageopacity="0.0"
     inkscape:pageshadow="2"
     inkscape:zoom="64.005488"
     inkscape:cx="-12.288626"
     inkscape:cy="12.354037"
     inkscape:document-units="px"
     inkscape:current-layer="layer1"
     showgrid="true"
     inkscape:window-width="1920"
     inkscape:window-height="1052"
     inkscape:window-x="0"
     inkscape:window-y="28"
     inkscape:window-maximized="1"
     showguides="true"
     inkscape:guide-bbox="true">
    <inkscape:grid
       type="xygrid"
       id="grid2985"
       empspacing="5"
       visible="true"
       enabled="true"
       snapvisiblegridlinesonly="true" />
  </sodipodi:namedview>
  <metadata
     id="metadata7">
    <rdf:RDF>
      <cc:Work
         rdf:about="">
        <dc:format>image/svg+xml</dc:format>
        <dc:type
           rdf:resource="http://purl.org/dc/dcmitype/StillImage" />
        <dc:title />
      </cc:Work>
    </rdf:RDF>
  </metadata>
  <g
     inkscape:label="Layer 1"
     inkscape:groupmode="layer"
     id="layer1"
     transform="translate(0,-1030.3622)">
    <path
       sodipodi:type="arc"
       style="opacity:0.25;fill:url(#radialGradient3766);fill-opacity:1;stroke:none"
       id="path2990"
       sodipodi:cx="11"
       sodipodi:cy="19"
       sodipodi:rx="11"
       sodipodi:ry="1"
       d="m 22,19 c 0,0.552285 -4.924868,1 -11,1 -6.0751322,0 -11,-0.447715 -11,-1 0,-0.552285 4.9248678,-1 11,-1 6.075132,0 11,0.447715 11,1 z"
       transform="matrix(1.1818182,0,0,1,-2,1031.3622)" />
    <path
       sodipodi:nodetypes="ccccccccc"
       inkscape:connector-curvature="0"
       id="path3029"
       d="m 0,1033.3622 0,14 22,0 0,-7 -1,-6 -8,0 -1,-2 -11,0 c -0.5,0 -1,0.5 -1,1 z"
       style="fill:replacecolour2;fill-opacity:1;stroke:none" />
    <path
       style="opacity:0.02999998;fill:#000000;fill-opacity:1;stroke:none"
       d="m 1,1032.3622 c -0.5,0 -1,0.5 -1,1 l 0,1 c 0,-0.5 0.5,-1 1,-1 l 10,0 1,2 9,0 0,6 0,-1 0,-6 -8,0 -1,-2 z"
       id="path3806"
       inkscape:connector-curvature="0"
       sodipodi:nodetypes="sscsccccccccs" />
    <rect
       style="fill:#fffdf0;fill-opacity:1;stroke:none"
       id="rect3799"
       width="10"
       height="3.9999914"
       x="2"
       y="1035.3622" />
    <path
       style="fill:replacecolour1;fill-opacity:1;stroke:none"
       d="m 22,1035.4289 0,14.9333 -22,0 0,-14 11,0 1,-2 9,0 c 0.5,0 1,0.5333 1,1.0667 z"
       id="rect2987"
       inkscape:connector-curvature="0"
       sodipodi:nodetypes="cccccccc" />
    <path
       sodipodi:nodetypes="ccccc"
       id="path3794"
       d="m 0,1049.3622 0,1 22,0 0,-1 z"
       style="opacity:0.15;fill:#000000;fill-opacity:1;stroke:none"
       inkscape:connector-curvature="0" />
    <path
       style="fill:none;stroke:none"
       d="m 11,1034.8622 -2.5,1.5 1.5,0 z"
       id="path3801"
       inkscape:connector-curvature="0" />
    <path
       style="opacity:0.02999998;fill:#000000;fill-opacity:1;stroke:none"
       d="m 12,1034.3622 -1,2 -11,0 0,1 12,0 1,-2 8,0 c 0.5,0 1,0.5 1,1 l 0,-1 c 0,-0.5 -0.5,-1 -1,-1 z"
       id="path3033"
       inkscape:connector-curvature="0"
       sodipodi:nodetypes="ccccccscssc" />
    <g
       style="fill:replacecolour3;fill-opacity:1"
       id="g16"
       transform="matrix(0.75,0,0,0.6,5,417.54488)" />
    <path
       style="opacity:1.0;fill:replacecolour3;fill-opacity:1;stroke:none"
       d="M 11 8 C 8.7805057 8 6.9343463 9.4673108 6.28125 11.46875 C 6.7204655 11.835618 7 12.382948 7 13 C 7 13.617052 6.7204655 14.164382 6.28125 14.53125 C 6.9343463 16.532689 8.7805057 18 11 18 C 11.345178 18 11.674512 17.972854 12 17.90625 C 12.049335 16.845528 12.927106 16 14 16 C 14.291093 16 14.563018 16.075687 14.8125 16.1875 C 15.542374 15.318457 16 14.223684 16 13 C 16 11.776316 15.542374 10.681543 14.8125 9.8125 C 14.563018 9.924313 14.291093 10 14 10 C 12.927106 10 12.049335 9.1544717 12 8.09375 C 11.674512 8.0271455 11.345178 8 11 8 z M 11 10 C 12.656854 10 14 11.343146 14 13 C 14 14.656854 12.656854 16 11 16 C 9.3431458 16 8 14.656854 8 13 C 8 11.343146 9.3431458 10 11 10 z "
       transform="translate(0,1030.3622)"
       id="path3030" />
    <path
       sodipodi:type="arc"
       style="fill:replacecolour3;fill-opacity:1;stroke:none;opacity:1.0"
       id="path3804"
       sodipodi:cx="4"
       sodipodi:cy="13"
       sodipodi:rx="2"
       sodipodi:ry="2"
       d="m 6,13 c 0,1.104569 -0.8954305,2 -2,2 -1.1045695,0 -2,-0.895431 -2,-2 0,-1.104569 0.8954305,-2 2,-2 1.1045695,0 2,0.895431 2,2 z"
       transform="matrix(0.5,0,0,0.5,3,1036.8622)" />
    <path
       sodipodi:type="arc"
       style="fill:replacecolour3;fill-opacity:1;stroke:none;opacity:1.0"
       id="path3811"
       sodipodi:cx="4"
       sodipodi:cy="13"
       sodipodi:rx="2"
       sodipodi:ry="2"
       d="m 6,13 c 0,1.104569 -0.8954305,2 -2,2 -1.1045695,0 -2,-0.895431 -2,-2 0,-1.104569 0.8954305,-2 2,-2 1.1045695,0 2,0.895431 2,2 z"
       transform="matrix(0.5,0,0,0.5,12,1041.8622)" />
    <path
       transform="matrix(0.5,0,0,0.5,12,1031.8622)"
       d="m 6,13 c 0,1.104569 -0.8954305,2 -2,2 -1.1045695,0 -2,-0.895431 -2,-2 0,-1.104569 0.8954305,-2 2,-2 1.1045695,0 2,0.895431 2,2 z"
       sodipodi:ry="2"
       sodipodi:rx="2"
       sodipodi:cy="13"
       sodipodi:cx="4"
       id="path3815"
       style="fill:replacecolour3;fill-opacity:1;stroke:none;opacity:1.0"
       sodipodi:type="arc" />
  </g>
</svg>

<!-- Created with Inkscape (http://www.inkscape.org/) -->
<svg xmlns="http://www.w3.org/2000/svg" viewBox="0 0 22 22">
 <defs>
  <radialGradient id="radialGradient3766" cx="11" cy="19" r="11" gradientTransform="matrix(1,0,0,0.09090909,0,17.272727)" gradientUnits="userSpaceOnUse">
   <stop style="stop-color:#000;stop-opacity:1"/>
   <stop offset="1" style="stop-color:#000;stop-opacity:0"/>
  </radialGradient>
 </defs>
 <g transform="translate(0,-1030.3622)">
  <path d="m 22 19 c 0 0.552 -4.925 1 -11 1 -6.075 0 -11 -0.448 -11 -1 0 -0.552 4.925 -1 11 -1 6.075 0 11 0.448 11 1 z" transform="matrix(1.1818182,0,0,1,-2,1031.3622)" style="fill:url(#radialGradient3766);opacity:0.25;fill-opacity:1;stroke:none"/>
  <path d="m 0 1033.36 0 14 22 0 0 -7 -1 -6 -8 0 -1 -2 -11 0 c -0.5 0 -1 0.5 -1 1 z" style="fill:replacecolour2;fill-opacity:1;stroke:none"/>
  <path d="m 1 1032.36 c -0.5 0 -1 0.5 -1 1 l 0 1 c 0 -0.5 0.5 -1 1 -1 l 10 0 1 2 9 0 0 6 0 -1 0 -6 -8 0 -1 -2 z" style="fill:#000;opacity:0.03;fill-opacity:1;stroke:none"/>
  <rect width="10" height="4" x="2" y="1035.36" style="fill:#fffdf0;fill-opacity:1;stroke:none"/>
  <path d="m 22 1035.43 0 14.933 -22 0 0 -14 11 0 1 -2 9 0 c 0.5 0 1 0.533 1 1.067 z" style="fill:replacecolour1;fill-opacity:1;stroke:none"/>
  <path d="m 0 1049.36 0 1 22 0 0 -1 z" style="fill:#000;opacity:0.15;fill-opacity:1;stroke:none"/>
  <path d="m 12 1034.36 -1 2 -11 0 0 1 12 0 1 -2 8 0 c 0.5 0 1 0.5 1 1 l 0 -1 c 0 -0.5 -0.5 -1 -1 -1 z" style="fill:#000;opacity:0.03;fill-opacity:1;stroke:none"/>
  <path d="m 11 8 c -2.219 0 -4.066 1.467 -4.719 3.469 c 0.439 0.367 0.719 0.914 0.719 1.531 c 0 0.617 -0.28 1.164 -0.719 1.531 c 0.653 2 2.499 3.469 4.719 3.469 c 0.345 0 0.675 -0.027 1 -0.094 c 0.049 -1.061 0.927 -1.906 2 -1.906 c 0.291 0 0.563 0.076 0.813 0.188 c 0.73 -0.869 1.188 -1.964 1.188 -3.188 c 0 -1.224 -0.458 -2.318 -1.188 -3.188 c -0.249 0.112 -0.521 0.188 -0.813 0.188 c -1.073 0 -1.951 -0.846 -2 -1.906 c -0.325 -0.067 -0.655 -0.094 -1 -0.094 z m 0 2 c 1.657 0 3 1.343 3 3 c 0 1.657 -1.343 3 -3 3 c -1.657 0 -3 -1.343 -3 -3 c 0 -1.657 1.343 -3 3 -3 z" transform="translate(0,1030.3622)" style="fill:replacecolour3;opacity:1;fill-opacity:1;stroke:none"/>
  <path d="m 6 13 c 0 1.105 -0.895 2 -2 2 -1.105 0 -2 -0.895 -2 -2 0 -1.105 0.895 -2 2 -2 1.105 0 2 0.895 2 2 z" transform="matrix(0.5,0,0,0.5,3,1036.8622)" style="fill:replacecolour3;opacity:1;fill-opacity:1;stroke:none"/>
  <path d="m 6 13 c 0 1.105 -0.895 2 -2 2 -1.105 0 -2 -0.895 -2 -2 0 -1.105 0.895 -2 2 -2 1.105 0 2 0.895 2 2 z" transform="matrix(0.5,0,0,0.5,12,1041.8622)" style="fill:replacecolour3;opacity:1;fill-opacity:1;stroke:none"/>
  <path transform="matrix(0.5,0,0,0.5,12,1031.8622)" d="m 6 13 c 0 1.105 -0.895 2 -2 2 -1.105 0 -2 -0.895 -2 -2 0 -1.105 0.895 -2 2 -2 1.105 0 2 0.895 2 2 z" style="fill:replacecolour3;opacity:1;fill-opacity:1;stroke:none"/>
 </g>
</svg>
